!!!COM: Palestrina, Giovanni Perluigi da
!!!OPR: Missa In festis Apostolorum (I)
!!!OMD: Gloria
!!!OTL: Domine Deus Rex
**kern	**kern	**kern	**kern	**kern
*Ibass	*Itenor	*Itenor	*Icalto	*Icant
!Bassus	!Tenor 2	!Tenor 1	!Altus	!Cantus
*clefF4	*clefGv2	*clefGv2	*clefG2	*clefG2
*k[]	*k[]	*k[]	*k[]	*k[]
*D:dor	*D:dor	*D:dor	*D:dor	*D:dor
*M4/2	*M4/2	*M4/2	*M4/2	*M4/2
=35	=35	=35	=35	=35
1.A	0r	1r	0r	0r
.	.	[1D	.	.
2G	.	.	.	.
=36	=36	=36	=36	=36
2F	0r	2D]	1r	0r
2E	.	2C	.	.
2.D	.	1F	[1a	.
4C	.	.	.	.
=37	=37	=37	=37	=37
1BB	0r	1G	2a]	1.d
.	.	.	2g	.
2AA	.	[1A	2f	.
2A	.	.	2e	2c
=38	=38	=38	=38	=38
2D	0r	1A]	2.d	1f
2D	.	.	.	.
.	.	.	4c	.
1E	.	2r	1B	1g
.	.	2e	.	.
=39	=39	=39	=39	=39
1AA	1c	2e	1A	2a
.	.	1e	.	1cc
1r	1G	.	2r	.
.	.	[2d	2d	2b
=40	=40	=40	=40	=40
0r	1F	4d]	2.f	1a
.	.	4c	.	.
.	.	1c	.	.
.	.	.	4e	.
.	1G	.	2d	2.g
.	.	2B	[2e	.
.	.	.	.	4f
=41	=41	=41	=41	=41
2r	1A	1c	4e]	1e
.	.	.	4d	.
1A	.	.	4c	.
.	.	.	4B	.
.	2r	1r	2c	2f
2G	[2d	.	2B	2g
=42	=42	=42	=42	=42
1A	2d]	0r	2r	1e
.	2c	.	1A	.
1D	1d	.	.	1f
.	.	.	2B	.
=43	=43	=43	=43	=43
2E	1G	0r	2c	1e
1G	.	.	2B	.
.	1A	.	1d	2r
2F	.	.	.	[2a
=44	=44	=44	=44	=44
2.E	2c	0r	1e	2a]
.	2.B	.	.	2g
4D	.	.	.	.
2C	.	.	2e	1a
.	4A	.	.	.
2D	[2A	.	2f	.
=45	=45	=45	=45	=45
1BB	4A]	2r	0r	1d
.	4G#	.	.	.
.	4G#	1d	.	.
.	4F#	.	.	.
2AA	2.A	.	.	1e
2A	.	2c	.	.
.	8G#	.	.	.
.	8A	.	.	.
=46	=46	=46	=46	=46
2G	2B	1d	2r	2g
2D	2A	.	1d	2f
1E	2r	1G	.	1g
.	[2G	.	2c	.
=47	=47	=47	=47	=47
1D	2G]	1A	1d	2r
.	2F	.	.	2dd
2r	2E	1c	2G	4cc
.	.	.	.	4b
2A	[2F	.	[2A	4a
.	.	.	.	4g
=48	=48	=48	=48	=48
1D	4F]	2.d	2A]	4f
.	4G	.	.	4e
.	2A	.	1f	4d
.	.	4c	.	4e
1D	2.d	2B-	.	4f
.	.	.	.	4g
.	.	2A	2f	4a
.	4c	.	.	4f
=49	=49	=49	=49	=49
0E	2B	2G	[0e	2g
.	2A	2c	.	1a
.	2B	1B	.	.
.	2e	.	.	2g#
=50	=50	=50	=50	=50
[0AA	[0c#	[0A	1e_	[0a
.	.	.	1e_	.
=51	=51	=51	=51	=51
0AA]	0c#]	0A]	0e]	0a]
*-	*-	*-	*-	*-
!!!CDT: 1525/^1526/-1594/2/2
!!!OCY: Italia
!!!AGN: Mass (Paraphrase)
!!!AST: renaissance, vocal
!!!ASW: Gregorian Mass
!!!PWK: Masses, Book Mantuan II
!!!RNB: Cadence finals: A,E
!!!YOR: Le Opere Complete, v. 19, p. 43
!!!YOO: Rome, Italy: Fratelli Scalera
!!!END: 1992//
!!!EED: John Miller
!!!YEC: Copyright 2000, John Miller
!!!YEN: United States of America
!!!YEM: Rights to all derivative electronic formats reserved.
!!!YEM: Refer to licensing agreement for further details.
!!!YEM: This file must be accompanied by the licensing agreement.
!!!YEM: A copy of the licensing agreement may be found at http://www.music-cog.ohio-state.edu/HumdrumDatabases/Palestrina/license.txt
!!!EMD: converted to Humdrum by Bret Aarden
